!!!COM: Fux, Johann Joseph
!!!OMD: Gradus ad Parnassum Exercise
!!!YEC: CC0 1.0 Universal (Public Domain). Mark Gotham and FourScoreAndMore.org waive all rights to this document.
**kern	**kern	**kern
*part3	*part2	*part1
*staff3	*staff2	*staff1
*I"3	*I"2	*I"1
*I'Pno	*I'Pno	*I'Pno
!!LO:LB:g=z
*clefF4	*clefG2	*clefG2
*k[]	*k[]	*k[]
!!LO:TX:omd:t=
*M4/4	*M4/4	*M4/4
=64	=64	=64
!	!	!LO:TX:a:t=Fig. 110; Species&colon; 1; Modal final&colon; f; Cantus firmus&colon; 1
1F	1c	1f
=65	=65	=65
1E	1c	1g
=66	=66	=66
1F	1c	1a
=67	=67	=67
1D	1d	1f
=68	=68	=68
1G	1B-X	1d
=69	=69	=69
1G	1B	1e
=70	=70	=70
1F	1A	1f
=71	=71	=71
1AA	1a	1cc
=72	=72	=72
1D	1f	1a
=73	=73	=73
1D	1d	1f
=74	=74	=74
1C	1e	1g
=75	=75	=75
1FF	1f	1f
==	==	==
*-	*-	*-
!!!software: music21 v.9.7.1
!!!software: music21 v.9.7.1
!!!software: MuseScore 3.4.2
!!!RDF**kern: > = above
!!!RDF**kern: < = below
